X:1
T:Se il dolce sguardo
T:Luca Marenzio
T:Source : Il primo libro delle Villanelle a tre voci---Venetia---G.Vincenzi---1586. Editor : André Vierendeels (11/05/17).
T:Notes : Original clefs :  C1, C2, F4 "Terza impressione" m 10 in S 2 : first "F" notated as "E" in original print  
T:Se il dolce sguardo
T:©
T:©
C:Luca Marenzio
Z:©
%%score [ 1 2 3 ]
L:1/8
Q:1/4=120
M:4/4
K:F
V:1 treble nm="Soprano 1" snm="S 1"
V:2 treble nm="Soprano 2" snm="S 2"
V:3 bass nm="Bass" snm="B"
V:1
"^1)" z4 B4 | c4 d4 | _e8 | d2 d4 f2 | _e2 d2 c4 |1[M:2/4] B4 ::2 B4 ||[M:4/4] z2 d2 c2 B2 | %8
w: Se'il|dol- ce|sguar-|do del di-|vin tuo vol-|to,|to,|non por- ge'a|
w: Da|mez- zo'il|pet-|to'il cor m'ha|ve- te tol-|to,|to,|si co- me'il|
 A2 d2 c4 | F4 A4 | A2 GF E2 D2 | E4 D4 | z4 z2 B2 | A3 G A2 B2 | c4 z2 d2 | B3 A B2 c2 | d4 d4- | %17
w: le mie pen'|al- cu-|* * * * n'a-|i- ta,|io|per- de- ro per|voi io|per- de- ro per|voi l'al-|
w: fer- ro fà|la Ca-|* * * * la-|mi- ta|Soc-|cor- ri'a dun- *|que, soc-|cor- ri'a dun- que'à|la mor-|
 d2 cB A4- | A4 !fermata!G4 :| %19
w: * ma'e la vi-|* ta.|
w: * tal fe- ri-|* ta.|
V:2
"^2)""^1)" G8 | A4 =B4 | c8 | B2 B2 G2 B2 | B4 A4 |1[M:2/4] B4 ::2 B2 d2 ||[M:4/4] c2 B2 A2 G2 | %8
w: Se'il|dol- ce|sguar-|do del di- vin|tuo vol-|to,|to, non|por- ge'a le mie|
w: S'io|son per|voi|d'ogn' altr' a- mor|di- scio-|lo,|lo, hor|per- che mor- te'à|
 F4 A4 | AGFE F4- | F2 ED ^C2 D2- | D2 ^C2 D2 B2 | A3 G A2 G2 | ^F6 G2 | A3 G A2 B2 | G3 F G2 A2 | %16
w: pen' al-|cu- * * * *|* * * * n'a-|* i- ta, io|per- de- ro per|voi, io|per- de- ro, io|per- de- ro per|
w: piu mo-|rir _ _ _ _|_ m'in- * vi- *|* * ta. Se|la fiam- ma del|pet- to,|la fiam- ma del|pet- * * to,|
 B4 B4- | B2 AG ^F2 G2- | G2 ^F2 !fermata!G4 :| %19
w: voi l'al-|* ma'e la vi- *|* * ta.|
w: del pet|_ to'e'in- fi- ni- *|* * ta.|
V:3
"^3)""^1)""^4)" G,8 | F,4 D,4 | C,8 | G,,2 G,4 D,2 | _E,2 B,,2 F,4 |1[M:2/4] B,,4 ::2 B,,4 || %7
w: Se'il|dol- ce|sguar-|do del di-|vin tuo vol-|to;|to|
w: S'a-|mor, mor-|te|for- tu- na'e|tu mia stel-|la,|la|
[M:4/4] z2 B,2 F,2 G,2 | D,3 E, F,4 | F,4 F,E,D,E, | F,2 G,2 A,4- | A,4 D,2 G,2 | F,3 E, F,2 G,2 | %13
w: non por- ge'a|le mie pen'|al cun _ _ _|_ n'a- i-|* ta, io|per- de- ro per|
w: v'ha- ve- te|l'al- ma mia|già fat- * * *|* t'an- cel-|* la, dun-|que non si- a-|
 D,6 G,2 | F,3 E, F,2 B,,2 | _E,8 | B,,8 | B,,2 C,2 D,4- | D,4 !fermata!G,,4 :| %19
w: voi, io|per- de- ro per|voi|l'al-|ma'e la vi-|* ta.|
w: te, dun-|que non sia- te|di|pie-|ta ru- bel-|* la.|

